X: 33170
T: Private Ass And Cart
R: reel
M: 4/4
K: Emajor
B2BB AFF2|GEEE BcBA|GABG AFGA|B2AF GEE2|
GABG AFFF|GEEE BcBA|GABG AFGA|B2AF GEE2||
defd e2dB|BAFA B2BA|defd egfe|dBAF GEE2|
defd e2dB|BAFA B2BA|dcde (3fga fe|dBAF E2GA||

